!!!!SEGMENT: pl-kk--kk-i-389--014_anonim--deo-gratias-per-8vam-pasche-no-4.krn
!!!cenid: 17xx:2533
!!!COM: Anonim
!!!COM-rismID: pe30004985
!!!CDT:
!!!CNT:
!!!OTL: Deo gratias per 8vam Pasche No. 4
!!!PDT:
!!!AGN: Sacred
!!!YEC: Copyright 2022 Narodowy Instytut Fryderyka Chopina (https://polishscores.org)
!!!YEM: License CC-BY-4.0 (https://creativecommons.org/licenses/by/4.0)
!!!SMS-siglum: PL-Kk
!!!SMS-shelfmark: Kk.I.389
!!!SMS-variant:
!!!SMS-altvar:
!!!SMS-shelfwork: 014 W
!!!NIFC-rismSourceID: 1001146182
!!!NIFC-rismChildID: 1001147258
!!!NIFC-islandoraID: pl-kk:6976
!!!URL-pdf-islandora: https://repozytorium.nifc.pl/islandora/object/pl-kk%3A6976/datastream/PDF/view
!!!URL-scan: https://polish.musicsources.pl/pl/lokalizacje/galeria/rekopisy/5999/1 @EN{Scan on Polish Music Sources Website} @PL{Skany w portalu Dziedzictwo Muzyki Polskiej w otwartym dostępie}
!!!IIIF:
!!!ONB-nifc: UWAGA: 5 Deo Gratias w zakresie skanów: S – 18-19, A – 37-38, T – 56-57, B – 75-76. Każdy numer w osobnym pliku.
!!!AIN: 1 alto 1 bass 1 soprn 1 tenor
!!!key:
**kern	**text	**kern	**text	**kern	**text	**kern	**text
*part4	*part4	*part3	*part3	*part2	*part2	*part1	*part1
*staff4	*staff4	*staff3	*staff3	*staff2	*staff2	*staff1	*staff1
*I"Basso.	*	*I"Tenore.	*	*I"Alto.	*	*I"Soprano	*
*I'B	*	*I'T	*	*I'A	*	*I'S	*
*ICvox	*	*ICvox	*	*ICvox	*	*ICvox	*
*Ibass	*	*Itenor	*	*Ialto	*	*Isoprn	*
*clefF4	*	*clefC4	*	*clefC3	*	*clefC1	*
*k[]	*	*k[]	*	*k[]	*	*k[]	*
*C:	*	*C:	*	*C:	*	*C:	*
*M2/2	*	*M2/2	*	*M2/2	*	*M2/2	*
*met(C.)	*	*met(C.)	*	*met(C.)	*	*met(C.)	*
=1	=1	=1	=1	=1	=1	=1	=1
*	*	*	*	*	*	*all\right:global	*
2C/	De-	1G	De-	1e	De-	1cc	De-
*2\right	*	*	*	*	*	*	*
2c\	.	.	.	.	.	.	.
=2	=2	=2	=2	=2	=2	=2	=2
4B\	.	1G	-o	1d	.	1dd	.
4A\	.	.	.	.	.	.	.
4G\	.	.	.	.	.	.	.
4F\	.	.	.	.	.	.	.
=3	=3	=3	=3	=3	=3	=3	=3
4E\	.	1G	gra-	1e	-o	1cc	-o
4D\	.	.	.	.	.	.	.
2C/	-o	.	.	.	.	.	.
=4	=4	=4	=4	=4	=4	=4	=4
*	*	*	*	*2\right	*	*2\right	*
2BB-X/	gra-	1G	-ti-	2d\	gra-	2dd\	gra-
!	!	!	!	!LO:SIC:v:s=2f#	!	!	!
2C/	-ti-	.	.	2e\	-ti-	2cc\	-ti-
!LO:LB:g=original	!	!	!	!	!	!	!
=5	=5	=5	=5	=5	=5	=5	=5
2F\	-as	1A	-as	2f\	-as,	2cc\	-as
2AA/	al-	.	.	2f\	al-	2cc\	Al-
=6	=6	=6	=6	=6	=6	=6	=6
2BB-X/	-le-	1G	al-	2f\	.	2dd\	-le-
2C/	-lu-	.	.	2e\	.	2cc\	-lu-
=7	=7	=7	=7	=7	=7	=7	=7
2F\	-ia	1F	-le-	2f\	.	2cc\	-ia,
2F\	al-	.	.	2c\	.	2a\	al-
=8	=8	=8	=8	=8	=8	=8	=8
2F\	.	1G	-lu-	2d\	.	2b-X\	-le-
2E\	.	.	.	2e\	.	2cc\	-lu-
=9	=9	=9	=9	=9	=9	=9	=9
2F\	.	1A	-ia.	2c\	.	2a\	-ia,
2C/	-le-	.	.	2e\	.	2r	.
!	!	!LO:LB:g=original	!	!LO:LB:g=original	!	!	!
=10	=10	=10	=10	=10	=10	=10	=10
2D\	-lu-	1A	al-	2f\	-le-	1a	al-
2F\	.	.	.	2f\	-lu-	.	.
!	!	!	!	!	!	!LO:LB:g=original	!
=11	=11	=11	=11	=11	=11	=11	=11
2G\	-ia	1G	.	2d\	-ia	2bn\	.
2E\	al-	.	.	2e\	al-	2cc\	.
=12	=12	=12	=12	=12	=12	=12	=12
2F\	.	1c	.	2c\	.	2a\	.
2A\	.	.	.	2a\	.	2dd\	.
=13	=13	=13	=13	=13	=13	=13	=13
2G\	.	1B	.	2d\	.	2g\	-le-
2E\	.	.	.	2e\	.	2g\	-lu-
!LO:LB:g=original	!	!	!	!	!	!	!
=14	=14	=14	=14	=14	=14	=14	=14
2F\	-le-	1A	.	2c\	-le-	2a\	-ia
2D\	.	.	.	2f\	-lu-	2dd\	al-
=15	=15	=15	=15	=15	=15	=15	=15
2E\	.	1G	.	2g\	-ia,	2b\	.
2C/	.	.	.	2e\	al-	2cc\	.
=16	=16	=16	=16	=16	=16	=16	=16
2D\	.	1F#X	-le-	2f#X\	.	2a\	.
2BBn/	.	.	.	2g\	.	2b\	.
=17	=17	=17	=17	=17	=17	=17	=17
2C/	.	1A	-lu-	2g\	-le-	2ee\	-le-
2D/	-lu-	.	.	2f#X\	-lu-	2dd\	-lu-
=18	=18	=18	=18	=18	=18	=18	=18
0GG	-ia.	0G	-ia.	0g	-ia.	0dd	-ia.
==	==	==	==	==	==	==	==
*-	*-	*-	*-	*-	*-	*-	*-
!!!system-decoration: [(s1,s2,s3,s4)]
!!!ENC: Anastazja Marusiak
!!!END: 2023-11-13
!!!YEM: Copyright © 2023 by [Copyright Holder]
!!!ENC: Leszek Kubiak
!!!END: 2024-01-22
